X:0707
T:Come Ashore Jolly Tar
P:Come Ashore Jolly Tar
C:From Aird's Selection, 1782
R:Reel (8x32) 2 chords
B:RSCDS 7-7
Z:Anselm Lingnau <anselm@strathspey.org>
M:C
L:1/8
K:Em
BA|"Em"GFGE g2fe|"G"dBGB "C"c2 BA|1 "G"GFGE "D"DE"Em"FA|"D"d2"A7"A2 "D"A2 BA:|\
                                 [2 "Em"GFGE "Bm"DEFA|"Em"G2 E2 E2||
Bd|"Em"e3f efge|"Bm"d2B2B2 AB|"D"d^c"A/C#"de "Bm"de"A"fe|"Bm"d2"A"A2 "D"A2 Bd|\
   "Em"edef g2fe|"G"dBGB "C"c2BA|
                                 "Em"GFGE "Bm"DEFA|"Em"G2 E2 E2||\
GA|"Em"BGEG BGEG|BAGF E2 FG|"D"AFDF AFDF|AGFE D2 EF|
   "Em"GFGF Egfe|"G"dBGB "Am"AcBA|"Em"GFGE "Bm"DEFA|"Em"G2 E2 E2||\
Bd|"Em"edef efge|"Bm"d2B2 BAB^c|
                                "D"d^cde "A7"defe|"D"d2A2 A2 Bd|\
   "Em"edef egfe|"G"dBGB "D7"AcBA|"Em"GFGE "Bm"DEFA|"Em"G2 E2 E2|]
